packages/design-assets/icons/16px/Layers.svg

<svg width="16" height="16" xmlns="http://www.w3.org/2000/svg"><path d="M8 12.4l5.9-3.7L16 10l-8 5-8-5 2.1-1.3L8 12.4zM0 5l8-5 8 5-8 5-8-5z" fill="#818F99" fill-rule="evenodd"/></svg>

<?xml version="1.0" encoding="UTF-8"?>
<svg width="16px" height="16px" viewBox="0 0 16 16" version="1.1" xmlns="http://www.w3.org/2000/svg" xmlns:xlink="http://www.w3.org/1999/xlink">
    <!-- Generator: Sketch 54.1 (76490) - https://sketchapp.com -->
    <title>Icons/16px/Layers</title>
    <desc>Created with Sketch.</desc>
    <g id="Icons/16px/Layers" stroke="none" stroke-width="1" fill="none" fill-rule="evenodd">
        <path d="M8,12.4 L13.9,8.7 L16,10 L8,15 L0,10 L2.1,8.7 L8,12.4 Z M0,5 L8,0 L16,5 L8,10 L0,5 Z" id="i-16-layers" fill="#818F99"></path>
    </g>
</svg>
